public/new_template/imgs/theme/newsletter-bottom-left.svg

<svg width="37" height="39" viewBox="0 0 37 39" fill="none" xmlns="http://www.w3.org/2000/svg">
<g clip-path="url(#clip0_2_2)">
<rect width="1920" height="6070" transform="translate(-342 -5565)" fill="white"/>
<path d="M28.3494 -234.753C28.3494 -248.731 28.3494 -255.72 30.633 -261.233C33.6779 -268.584 39.5181 -274.424 46.8689 -277.469C52.3821 -279.753 59.3712 -279.753 73.3494 -279.753H1161.96C1175.94 -279.753 1182.93 -279.753 1188.44 -277.469C1195.79 -274.424 1201.64 -268.584 1204.68 -261.233C1206.96 -255.72 1206.96 -248.731 1206.96 -234.753V-5.96584C1206.96 8.0124 1206.96 15.0015 1204.68 20.5147C1201.64 27.8655 1195.79 33.7057 1188.44 36.7505C1182.93 39.0341 1175.94 39.0341 1161.96 39.0341H28.3494V-234.753Z" fill="#0061FF" fill-opacity="0.15"/>
<path d="M0.28717 -251.59C0.28717 -265.569 0.28717 -272.558 2.57078 -278.071C5.6156 -285.422 11.4558 -291.262 18.8067 -294.307C24.3198 -296.59 31.3089 -296.59 45.2872 -296.59H1190.03C1204 -296.59 1210.99 -296.59 1216.51 -294.307C1223.86 -291.262 1229.7 -285.422 1232.74 -278.071C1235.03 -272.558 1235.03 -265.569 1235.03 -251.59V-22.8032C1235.03 -8.825 1235.03 -1.83588 1232.74 3.67725C1229.7 11.0281 1223.86 16.8683 1216.51 19.9131C1210.99 22.1967 1204 22.1967 1190.03 22.1967H0.28717V-251.59Z" fill="#0061FF" fill-opacity="0.3"/>
</g>
<defs>
<clipPath id="clip0_2_2">
<rect width="1920" height="6070" fill="white" transform="translate(-342 -5565)"/>
</clipPath>
</defs>
</svg>

<svg version="1.2" xmlns="http://www.w3.org/2000/svg" viewBox="0 0 37 39" width="37" height="39"><defs><clipPath clipPathUnits="userSpaceOnUse" id="cp1"><path d="m-342-5565h1920v6070h-1920z"/></clipPath></defs><style>.a{fill:#fff}.b{opacity:.1;fill:#d71a21}.c{opacity:.3;fill:#d71a21}</style><g clip-path="url(#cp1)"><path class="a" d="m-342-5565h1920v6070h-1920z"/><path class="b" d="m28.3-234.8c0-13.9 0-20.9 2.3-26.4 3.1-7.4 8.9-13.2 16.3-16.3 5.5-2.3 12.5-2.3 26.4-2.3h1088.7c13.9 0 20.9 0 26.4 2.3 7.4 3.1 13.2 8.9 16.3 16.3 2.3 5.5 2.3 12.5 2.3 26.4v228.8c0 14 0 21-2.3 26.5-3.1 7.4-8.9 13.2-16.3 16.3-5.5 2.2-12.5 2.2-26.4 2.2h-1133.7z"/><path class="c" d="m0.3-251.6c0-14 0-21 2.3-26.5 3-7.3 8.9-13.2 16.2-16.2 5.5-2.3 12.5-2.3 26.5-2.3h1144.7c14 0 21 0 26.5 2.3 7.4 3 13.2 8.9 16.2 16.2 2.3 5.5 2.3 12.5 2.3 26.5v228.8c0 14 0 21-2.3 26.5-3 7.3-8.8 13.2-16.2 16.2-5.5 2.3-12.5 2.3-26.5 2.3h-1189.7z"/></g></svg>
